src/assets/images/whatsup.svg

<svg width="19" height="19" viewBox="0 0 19 19" fill="none" xmlns="http://www.w3.org/2000/svg">
<path d="M0 18.997L1.36178 13.9335C0.263538 11.9611 -0.0853836 9.6594 0.37904 7.45083C0.843464 5.24227 2.09008 3.27498 3.89014 1.90997C5.69019 0.54496 7.92294 -0.126215 10.1787 0.0196093C12.4344 0.165434 14.5618 1.11848 16.1705 2.70385C17.7792 4.28922 18.7612 6.40059 18.9365 8.6505C19.1117 10.9004 18.4684 13.138 17.1245 14.9525C15.7806 16.7671 13.8264 18.037 11.6204 18.5292C9.41432 19.0214 7.10449 18.7029 5.11471 17.6321L0 18.997ZM5.36133 15.7373L5.67765 15.9247C7.11889 16.7775 8.80223 17.1304 10.4654 16.9284C12.1285 16.7264 13.678 15.9809 14.8723 14.8079C16.0667 13.6349 16.8389 12.1005 17.0685 10.4437C17.2982 8.78685 16.9724 7.10073 16.1419 5.64806C15.3115 4.19538 14.023 3.05777 12.4773 2.41249C10.9316 1.76721 9.21555 1.65052 7.59649 2.08059C5.97744 2.51067 4.54636 3.46335 3.52628 4.79019C2.50619 6.11702 1.9544 7.74347 1.95689 9.41608C1.95553 10.8029 2.33972 12.163 3.06668 13.3448L3.26505 13.6713L2.50374 16.4974L5.36133 15.7373Z" fill="#29A71A"/>
<path fill-rule="evenodd" clip-rule="evenodd" d="M13.0386 10.7162C12.8532 10.5669 12.6361 10.4618 12.4038 10.4089C12.1715 10.3561 11.9302 10.3568 11.6983 10.4111C11.3498 10.5557 11.1246 11.1016 10.8994 11.3746C10.8519 11.44 10.7822 11.4859 10.7032 11.5036C10.6242 11.5214 10.5415 11.5097 10.4705 11.4709C9.19471 10.9721 8.1253 10.0572 7.43601 8.87498C7.37722 8.80121 7.3494 8.70754 7.3584 8.61369C7.3674 8.51985 7.41252 8.43315 7.48427 8.37185C7.73541 8.12364 7.91981 7.81621 8.0204 7.47799C8.04274 7.10494 7.95713 6.73334 7.77378 6.40751C7.63204 5.95071 7.36228 5.54396 6.99639 5.23532C6.80767 5.15058 6.59842 5.12217 6.39389 5.15351C6.18936 5.18485 5.99828 5.27461 5.8437 5.41195C5.57535 5.64309 5.36235 5.93138 5.22039 6.2556C5.07842 6.57981 5.01112 6.93168 5.02342 7.28531C5.02424 7.48389 5.04945 7.68162 5.09847 7.87408C5.22297 8.33648 5.41442 8.77825 5.66678 9.18543C5.84885 9.49733 6.0475 9.79928 6.26188 10.09C6.95861 11.0449 7.83442 11.8556 8.84068 12.4772C9.34564 12.7931 9.88532 13.0499 10.4491 13.2426C11.0347 13.5076 11.6813 13.6093 12.3202 13.537C12.6842 13.482 13.0291 13.3385 13.3245 13.1191C13.6199 12.8998 13.8568 12.6113 14.0144 12.2791C14.1069 12.0785 14.135 11.8541 14.0948 11.6368C13.9983 11.1926 13.4032 10.9303 13.0386 10.7162Z" fill="#29A71A"/>
</svg>

<svg width="19" height="19" fill="none" xmlns="http://www.w3.org/2000/svg"><path d="m0 18.997 1.362-5.063A9.364 9.364 0 0 1 3.89 1.91a9.404 9.404 0 0 1 12.28.794 9.366 9.366 0 0 1 .954 12.249 9.407 9.407 0 0 1-12.01 2.68L0 18.996zm5.361-3.26.317.188a7.602 7.602 0 0 0 9.194-1.117 7.574 7.574 0 0 0 1.27-9.16 7.587 7.587 0 0 0-3.665-3.236 7.603 7.603 0 0 0-8.95 2.378 7.57 7.57 0 0 0-1.57 4.626 7.484 7.484 0 0 0 1.11 3.929l.198.326-.761 2.826 2.857-.76z" fill="#29A71A"/><path fill-rule="evenodd" clip-rule="evenodd" d="M13.039 10.716a1.567 1.567 0 0 0-1.34-.305c-.35.145-.574.69-.8.964a.332.332 0 0 1-.428.096 6.071 6.071 0 0 1-3.035-2.596.364.364 0 0 1 .048-.503c.251-.248.436-.556.536-.894a1.946 1.946 0 0 0-.246-1.07 2.505 2.505 0 0 0-.778-1.173 1.074 1.074 0 0 0-1.152.177 2.366 2.366 0 0 0-.82 1.873c0 .199.025.397.074.59.125.461.316.903.569 1.31.182.312.38.614.595.905a9.135 9.135 0 0 0 2.579 2.387 7.773 7.773 0 0 0 1.608.766 3.566 3.566 0 0 0 1.871.294 2.248 2.248 0 0 0 1.694-1.258c.093-.2.121-.425.08-.642-.096-.444-.69-.707-1.055-.92z" fill="#29A71A"/></svg>
